X:0901
T:Dr. MacKay,
C:Irish.
N:(pencil note in book) My Jo Janet
M:2/4
L:1/8
Q:1/4=120
I: :: :|
Z:Jack Campin * www.campin.me.uk * 2009
K:D
AddB|cdeg|fddD|F2A2|AddB|cdeg|fddD|F2A2:|
BGGB|AGFA|GGEG|FGAc|BGGB|AGFE|DddD|F2A2:|

